X:1
T:Nutfield, 84.84.88.84
T:Nutfield, 84.84.88.84
T:William Henry Monk, 1861
T:Public Domain Courtesy of the Cyber Hymnal™
C:William Henry Monk, 1861
Z:Public Domain
Z:Courtesy of the Cyber Hymnal™
%%score ( 1 2 ) ( 3 4 )
L:1/8
Q:1/4=110
M:4/4
K:D
V:1 treble 
V:2 treble 
V:3 bass 
V:4 bass 
V:1
|: [DF]2 [DF]2 [DG]2 [DA]2 | [DB]2 [Gc]2 [Fd]2 [DA]2 | [DA]4 [DE]2 [CA]2 | [DF]8 :| %4
 D2 D2 [CE]2 [DF]2 | [DG]2 [DF]2 [CE]2 D2 | [DF]2 [DF]2 [DG]2 [DA]2 | [B,B]2 [CA]2 G2 F2 | %8
 [DG]2 [DA]2 [DB]2 [Ec]2 | [Fd]2 [DA]2 [EG]2 [DF]2 | [DA]4 [DE]2 [CF]2 | D8 |] %12
V:2
|: x8 | x8 | x8 | x8 :| D2 D2 x4 | x6 D2 | x8 | x4 (EF) F2 | x8 | x8 | x8 | D8 |] %12
V:3
|: [D,A,]2 [D,A,]2 [G,B,]2 [F,A,]2 | G,2 [E,G,]2 [D,A,]2 [F,A,]2 | A,4 A,2 [A,,A,]2 | [D,A,]8 :| %4
 [D,F,]2 [B,,F,]2 [A,,A,]2 [D,A,]2 | [B,,B,]2 [D,A,]2 [A,,G,]2 [D,F,]2 | %6
 [D,A,]2 [C,A,]2 [B,,G,]2 [A,,F,]2 | [G,,G,]2 [A,,F,]2 B,2 [D,A,]2 | [G,B,]2 [F,A,]2 G,2 [E,G,]2 | %9
 [D,A,]2 [F,A,]2 [C,A,]2 [D,A,]2 | A,4 A,2 [A,,A,]2 | [D,F,]8 |] %12
V:4
|: x8 | G,2 x6 | (F,3 G,) A,2 x2 | x8 :| x8 | x8 | x8 | x4 (B,,C,) x2 | x4 G,2 x2 | x8 | %10
 (F,3 G,) A,2 x2 | x8 |] %12

